X:5339
T:Queen of Hearts, The
O:england
S:Digital Tradition, qunheart
D:Recorded by Joan Baez
M:3/4
L:1/8
Q:1/4=100
W:To the queen of hearts is the ace of sorrow
W:He's here today, he's gone tomorrow
W:Young men are plenty but sweethearts few
W:If my love leaves me what shall I do?
W:
W:Had I the store in yonder mountain
W:Where gold and silver is there for counting
W:I could not count for thought of thee
W:My eyes so full I could not see
W:
W:I love my father, I love my mother
W:I love my sister, I love my brother
W:I love my friends and relatives too
W:I'll forsake them all and go with you
W:
W:To the queen of hearts is the ace of sorrow
W:He's here today, he's gone tomorrow
W:Young men are plenty but sweethearts few
W:If my love leaves me what shall I do?
K:D
FF |B4 F2|d4 cB|^A4 B-c|FF3 F2|G4 F2|E4 E2|F4- FF|B,B,3- B,2|z2 z2 F2|
G4 F2|dc3 zB|^Ac3- c2|B4 zA|G4 F-E|FF3- F2|cd3 c2|B6-|B4 ||


